svg/furkot/freepik/grocery.svg

<svg viewBox="0 0 512 512" xmlns="http://www.w3.org/2000/svg"><path d="m461.066 373.677c0-1.636-1.071-4.113-1.273-5.669-1.709-13.598-5.293-26.57-12.371-38.433-6.643-11.207-15.713-20.028-25.999-26.049-6.633-3.856-13.971-6.603-22.05-8.258-12.77-2.713-25.251-1.786-37.622 2.384-4.548 1.546-9.069 3.111-13.568 4.528 12.824-33.929 40.641-55.652 40.641-55.652l-28.456-20.566c-13.398 17.437-21.537 34.736-26.424 50.292-1.008-7.73-3.827-17.953-11.085-25.231-13.172-13.179-36.106-11.59-36.106-11.59s-1.582 22.94 11.643 36.099c9.964 9.984 25.667 11.491 32.559 11.64-1.363 5.825-2.288 11.261-2.889 16.261-5.882-1.742-11.716-3.763-17.575-5.762-12.374-4.145-24.852-5.076-37.648-2.403-8.082 1.672-15.354 4.402-22.023 8.291-9.452 5.536-17.611 13.668-24.067 23.579v-197.898c0-2.184-.768-4.275-2.151-5.951l-42.556-51.323c4.588-.582 8.195-4.339 8.195-9.096v-53.554c-.006-5.14-4.182-9.316-9.322-9.316h-81.338c-5.14 0-9.316 4.176-9.316 9.316v53.557c0 4.758 3.594 8.514 8.179 9.096l-42.546 51.32c-1.397 1.656-2.145 3.763-2.145 5.951v371.785c0 5.127 4.176 9.316 9.316 9.316h154.365c5.14 0 9.316-4.189 9.316-9.316v-52.706c5.385 12.278 11.975 23.974 19.668 35.165 5.27 7.62 10.859 14.885 17.887 20.693 5.552 4.518 11.35 9.419 18.605 10.742.801.11 1.639 0 2.51 0h2.893c1.11 0 2.264.15 3.441 0 10.043-1.599 19.206-6.912 29.031-9.316 1.383-.345 2.656-.635 4.082-.904 3.508-.728 7.198-1.147 10.879-1.184h.392.399c3.694.057 7.407.459 10.915 1.184 1.33.289 2.729.562 4.079.904 9.828 2.404 18.954 7.714 28.988 9.316 1.147.15 2.327 0 3.474 0h2.979c.762 0 1.599.11 2.437 0 7.241-1.31 13.063-6.224 18.598-10.742 7.052-5.808 12.621-13.073 17.857-20.693 14.855-21.577 25.926-44.899 31.229-71.098 1.383-6.988 3.215-13.937 3.93-21.032.462-6.177.043-10.107.043-17.677zm-352.209-355.085h62.713v34.929h-62.713zm13.544 53.56h35.601l50.093 60.399v26.162h-135.733v-26.162z"/></svg>

<svg xmlns="http://www.w3.org/2000/svg" viewBox="0 0 512 512"><path d="M461.066 373.677C461.066 372.041 459.995 369.564 459.793 368.008 458.084 354.41 454.5 341.438 447.422 329.575 440.779 318.368 431.709 309.547 421.423 303.526 414.79 299.67 407.452 296.923 399.373 295.268 386.603 292.555 374.122 293.482 361.751 297.652 357.203 299.198 352.682 300.763 348.183 302.18 361.007 268.251 388.824 246.528 388.824 246.528L360.368 225.962C346.97 243.399 338.831 260.698 333.944 276.254 332.936 268.524 330.117 258.301 322.859 251.023 309.687 237.844 286.753 239.433 286.753 239.433S285.171 262.373 298.396 275.532C308.36 285.516 324.063 287.023 330.955 287.172 329.592 292.997 328.667 298.433 328.066 303.433 322.184 301.691 316.35 299.67 310.491 297.671 298.117 293.526 285.639 292.595 272.843 295.268 264.761 296.94 257.489 299.67 250.82 303.559 241.368 309.095 233.209 317.227 226.753 327.138V129.24C226.753 127.056 225.985 124.965 224.602 123.289L182.046 71.966C186.634 71.384 190.241 67.627 190.241 62.87V9.316C190.235 4.176 186.059 0 180.919 0H99.581C94.441 0 90.265 4.176 90.265 9.316V62.873C90.265 67.631 93.859 71.387 98.444 71.969L55.898 123.289C54.501 124.945 53.753 127.052 53.753 129.24V501.025C53.753 506.152 57.929 510.341 63.069 510.341H217.434C222.574 510.341 226.75 506.152 226.75 501.025V448.319C232.135 460.597 238.725 472.293 246.418 483.484 251.688 491.104 257.277 498.369 264.305 504.177 269.857 508.695 275.655 513.596 282.91 514.919 283.711 515.029 284.549 514.919 285.42 514.919 286.368 514.919 287.348 514.919 288.313 514.919 289.423 514.919 290.577 515.069 291.754 514.919 301.797 513.32 310.96 508.007 320.785 505.603 322.168 505.258 323.441 504.968 324.867 504.699 328.375 503.971 332.065 503.552 335.746 503.515 335.885 503.515 335.995 503.515 336.138 503.515 336.244 503.515 336.381 503.515 336.537 503.515 340.231 503.572 343.944 503.974 347.452 504.699 348.782 504.988 350.181 505.261 351.531 505.603 361.359 508.007 370.485 513.317 380.519 514.919 381.666 515.069 382.846 514.919 383.993 514.919 384.938 514.919 385.935 514.919 386.972 514.919 387.734 514.919 388.571 515.029 389.409 514.919 396.65 513.609 402.472 508.695 408.007 504.177 415.059 498.369 420.628 491.104 425.864 483.484 440.719 461.907 451.79 438.585 457.093 412.386 458.476 405.398 460.308 398.449 461.023 391.354 461.485 385.177 461.066 381.247 461.066 373.677ZM108.857 18.592H171.57V53.521H108.857V18.592ZM122.401 72.152H158.002L208.095 132.551V158.713H72.362V132.551L122.401 72.152Z"/></svg>
